X: 30482
T: AWAY TO THE MOUNTAIN
C:
%R: jig
B: Elias Howe "The Musician's Companion" Part 3 1844 p.48 #2
S: http://imslp.org/wiki/The_Musician's_Companion_(Howe,_Elias)
S: https://archive.org/stream/firstthirdpartof03howe/#page/66/mode/1up
Z: 2015 John Chambers <jc:trillian.mit.edu>
N: Added "pickup" rest to 2nd strain, to fix the rhythm.
M: 6/8
L: 1/8
K: Bb
% - - - - - - - - - - - - - - - - - - - - - - - - -
F |\
BAB (d2f) | c2c c2d | ede G2c | AcA FGA |\
BAB d2f | c2c c2d | fed fed | B2[dB] B2 :|
|: z |\
[c2A2]f [d2B2]f | ede c2e | [d2B2]b e2b | f=ef d2f |\
bag fed | cgf edc | Bdf c2d | [B2D2][BD] [B2D2] :|
% - - - - - - - - - - - - - - - - - - - - - - - - -
